src/ios-mic-off.svg

<?xml version="1.0" encoding="utf-8"?>
<!-- Generated by IcoMoon.io -->
<!DOCTYPE svg PUBLIC "-//W3C//DTD SVG 1.1//EN" "http://www.w3.org/Graphics/SVG/1.1/DTD/svg11.dtd">
<svg version="1.1" xmlns="http://www.w3.org/2000/svg" xmlns:xlink="http://www.w3.org/1999/xlink" width="512" height="512" viewBox="0 0 512 512">
<path fill="#000000" d="M136.482 40.109l13.806-8.085 257.602 439.906-13.807 8.085-257.602-439.906z"></path>
<path fill="#000000" d="M256.2 353.4c12.3 0 23.8-2.9 34.2-8.2l-113.4-192.8v117.6c0 46 35.4 83.4 79.2 83.4z"></path>
<path fill="#000000" d="M335 270v-154.5c0-46-35.2-83.5-79-83.5-25.4 0-47.8 12.6-62.3 32.2l136.9 233.3c2.9-8.6 4.4-17.9 4.4-27.5z"></path>
<path fill="#000000" d="M384 271.7v-79.7h-17v79.7c0 21.5-6.2 41.6-17.1 58.5l9.9 17c15.3-21.2 24.2-47.3 24.2-75.5z"></path>
<path fill="#000000" d="M267 399.2c17-1.2 33-5.8 47.3-13l-9.4-16.1c-14.5 7-30.7 10.9-47.7 10.9-60.3 0-110.1-49-110.1-109.1v-79.9h-19v79.7c0 67.2 53 122.6 120 127.4v62.9h-73v18h161v-18h-69v-62.8z"></path>
</svg>

<?xml version="1.0" encoding="utf-8"?>
<!-- Generator: Adobe Illustrator 16.2.1, SVG Export Plug-In . SVG Version: 6.00 Build 0)  -->
<!DOCTYPE svg PUBLIC "-//W3C//DTD SVG 1.1//EN" "http://www.w3.org/Graphics/SVG/1.1/DTD/svg11.dtd">
<svg version="1.1" id="Layer_1" xmlns="http://www.w3.org/2000/svg" xmlns:xlink="http://www.w3.org/1999/xlink" x="0px" y="0px"
	 width="512px" height="512px" viewBox="0 0 512 512" style="enable-background:new 0 0 512 512;" xml:space="preserve">
<g>
	<rect x="264.2" y="1.1" transform="matrix(0.8629 -0.5053 0.5053 0.8629 -92.0515 172.66)" width="16" height="509.8"/>
	<path d="M256.2,353.4c12.3,0,23.8-2.9,34.2-8.2L177,152.4V270C177,316,212.4,353.4,256.2,353.4z"/>
	<path d="M335,270V115.5c0-46-35.2-83.5-79-83.5c-25.4,0-47.8,12.6-62.3,32.2l136.9,233.3C333.5,288.9,335,279.6,335,270z"/>
	<path d="M384,271.7V192h-17v79.7c0,21.5-6.2,41.6-17.1,58.5l9.9,17C375.1,326,384,299.9,384,271.7z"/>
	<path d="M267,399.2c17-1.2,33-5.8,47.3-13l-9.4-16.1c-14.5,7-30.7,10.9-47.7,10.9c-60.3,0-110.1-49-110.1-109.1V192h-19v79.7
		c0,67.2,53,122.6,120,127.4V462h-73v18h161v-18h-69V399.2z"/>
</g>
</svg>
